X:345
T:On And On
C:Bill Monroe - Arr. John Baldry
N:
R:bluegrass
L:1/8
Q:1/4=255
M:4/4
K:A
z8 | z2 ee fe ge | "A"ag ae fg af | ef ed cB AB | "D"=cd cB AB A=G | "A"FE zE E2 CB, | 
A,=G, A,B, C=C ^CD | ED EF =GF GA | "E"BA B=c ^ce f=g | g8 | "A"z2 a2 a2 e=g | 
a=g ed =cA cd | "D"=cA cd cA cd | "A"=cA zA A2 e=g | a=c' a=g eg e^d | "E"dA =cd ^de =dc | 
"A"A2 =c2 (3dcA =Gc | A8 | 


